status/48/audio-volume-low-symbolic.svg

<?xml version="1.0" encoding="UTF-8" standalone="no"?>
<svg
   xmlns:dc="http://purl.org/dc/elements/1.1/"
   xmlns:cc="http://creativecommons.org/ns#"
   xmlns:rdf="http://www.w3.org/1999/02/22-rdf-syntax-ns#"
   xmlns:svg="http://www.w3.org/2000/svg"
   xmlns="http://www.w3.org/2000/svg"
   id="svg2"
   height="48"
   width="48"
   version="1.2">
  <defs
     id="defs4" />
  <metadata
     id="metadata7">
    <rdf:RDF>
      <cc:Work
         rdf:about="">
        <dc:format>image/svg+xml</dc:format>
        <dc:type
           rdf:resource="http://purl.org/dc/dcmitype/StillImage" />
        <dc:title />
      </cc:Work>
    </rdf:RDF>
  </metadata>
  <path
     id="path4284"
     d="M 33.09375 9.5 L 30.8125 11.59375 C 33.81132 13.71727 35.875 18.48584 35.875 24 C 35.875 29.51414 33.81132 34.28275 30.8125 36.40625 L 33.09375 38.5 C 36.57633 35.96472 39 30.44932 39 24 C 39 17.55066 36.57633 12.03526 33.09375 9.5 z M 28.71875 13.4375 L 26.59375 15.34375 C 28.52448 17.39707 29.75 20.50076 29.75 24 C 29.75 27.49924 28.52448 30.60293 26.59375 32.65625 L 28.71875 34.5625 C 31.22029 32.1608 32.875 28.3615 32.875 24 C 32.875 19.63848 31.22029 15.83922 28.71875 13.4375 z "
     style="color:#bebebe;clip-rule:nonzero;display:inline;overflow:visible;visibility:visible;isolation:auto;mix-blend-mode:normal;color-interpolation:sRGB;color-interpolation-filters:linearRGB;solid-color:#000000;solid-opacity:1;fill:#bebebe;fill-opacity:1;fill-rule:nonzero;stroke:none;stroke-width:1.82310748;stroke-linecap:butt;stroke-linejoin:miter;stroke-miterlimit:4;stroke-dasharray:none;stroke-dashoffset:0;stroke-opacity:1;marker:none;color-rendering:auto;image-rendering:auto;shape-rendering:auto;text-rendering:auto;enable-background:accumulate;opacity:0.35;filter-blend-mode:normal;filter-gaussianBlur-deviation:0" />
  <path
     id="path4282"
     d="M 19 13.25 L 12.3125 20 L 9 20 L 9 28 L 12.3125 28 L 19 34.75 L 19 13.25 z M 24.6875 17 L 22.46875 18.96875 C 23.3334 20.41419 23.875 22.15076 23.875 24 C 23.875 25.84922 23.3334 27.58579 22.46875 29.03125 L 24.6875 31 C 26.11935 29.09438 27 26.65142 27 24 C 27 21.34858 26.11935 18.90562 24.6875 17 z "
     style="color:#bebebe;clip-rule:nonzero;display:inline;overflow:visible;visibility:visible;isolation:auto;mix-blend-mode:normal;color-interpolation:sRGB;color-interpolation-filters:linearRGB;solid-color:#000000;solid-opacity:1;fill:#bebebe;fill-opacity:1;fill-rule:nonzero;stroke:none;stroke-width:1.82310748;stroke-linecap:butt;stroke-linejoin:miter;stroke-miterlimit:4;stroke-dasharray:none;stroke-dashoffset:0;stroke-opacity:1;marker:none;color-rendering:auto;image-rendering:auto;shape-rendering:auto;text-rendering:auto;enable-background:accumulate" />
</svg>

<svg xmlns="http://www.w3.org/2000/svg" height="48" width="48" version="1.2"><path d="M33.094 9.5l-2.282 2.094c3 2.123 5.063 6.892 5.063 12.406s-2.064 10.283-5.063 12.406l2.282 2.094C36.576 35.965 39 30.45 39 24c0-6.45-2.424-11.965-5.906-14.5zm-4.375 3.938l-2.128 1.906C28.522 17.397 29.75 20.5 29.75 24c0 3.5-1.226 6.603-3.156 8.656l2.125 1.907c2.5-2.402 4.153-6.202 4.153-10.563 0-4.362-1.655-8.16-4.156-10.563z" style="isolation:auto;mix-blend-mode:normal;filter-blend-mode:normal;filter-gaussianBlur-deviation:0" color="#bebebe" overflow="visible" fill="#bebebe" opacity=".35"/><path d="M19 13.25L12.312 20H9v8h3.313L19 34.75v-21.5zM24.688 17l-2.22 1.97A9.835 9.835 0 0 1 23.876 24a9.83 9.83 0 0 1-1.406 5.03L24.687 31A11.66 11.66 0 0 0 27 24c0-2.65-.88-5.094-2.313-7z" style="isolation:auto;mix-blend-mode:normal" color="#bebebe" overflow="visible" fill="#bebebe"/></svg>
